icons/mindsdb-dark.svg

<svg width="256" height="256" viewBox="0 0 256 256" fill="none" xmlns="http://www.w3.org/2000/svg">
<rect width="256" height="256" rx="60" fill="#282828"/>
<path d="M178.507 128.08C180.761 145.773 182.854 162.385 185.026 178.979C185.284 180.967 184.872 181.669 182.645 181.78C169.238 182.446 169.246 182.499 164.4 170.291C162.382 165.211 160.415 160.111 158.266 155.082C157.793 154.255 157.619 153.295 157.771 152.359C157.924 151.422 158.394 150.563 159.105 149.923C165.447 142.995 171.624 135.879 178.507 128.08Z" fill="#00A587"/>
<path d="M99.7038 142.909C101.624 152.648 103.518 161.803 105.186 170.998C105.701 173.844 108.017 177.46 106.036 179.384C104.327 181.038 100.533 178.699 97.6165 178.805C89.8694 179.093 86.2634 175.513 85.0048 167.994C84.2662 163.58 83.9392 160.524 87.6378 157.105C91.9549 152.624 95.9851 147.883 99.7038 142.909Z" fill="#00A587"/>
<path d="M121.58 160.673C121.58 155.203 121.495 149.734 121.621 144.266C121.67 142.119 121.062 141.394 118.743 141.319C102.923 140.803 87.1058 140.179 71.2922 139.445C68.8084 139.331 67.8278 140.025 67.3002 142.441C64.8602 153.628 62.0907 164.75 59.7074 175.951C59.0381 179.096 57.8182 180.256 54.4748 179.899C50.7651 179.52 47.0304 179.436 43.3069 179.645C40.5014 179.785 39.961 178.633 40.0021 176.229C40.2441 159.43 40.6018 142.63 40.4371 125.836C40.4067 120.668 42.1609 115.643 45.4124 111.584C54.1634 99.6185 62.5927 87.438 71.0708 75.2878C71.5281 74.4558 72.2478 73.7925 73.1215 73.3979C73.9951 73.0033 74.9754 72.8987 75.9147 73.0998C107.527 76.4273 139.15 79.651 170.786 82.7708C172.765 83.0042 174.654 83.7149 176.286 84.8397C195.111 96.8759 213.903 108.955 232.823 120.845C235.654 122.617 235.732 123.63 233.011 125.233C232.425 125.544 231.902 125.958 231.466 126.454C226.018 133.38 219.627 133.068 211.905 129.999C202.572 126.299 192.73 123.845 183.161 120.7C182.25 120.337 181.263 120.199 180.285 120.3C179.308 120.4 178.37 120.735 177.555 121.275C168.752 126.654 159.91 131.967 151.027 137.213C150.227 137.635 149.543 138.243 149.036 138.983C148.529 139.724 148.213 140.575 148.116 141.463C146.167 153.01 143.938 164.507 142.147 176.085C141.632 179.402 140.43 180.453 137.079 180.223C132.824 179.975 128.557 179.968 124.3 180.202C121.775 180.314 121.129 179.443 121.212 177.075C121.376 171.608 121.263 166.133 121.263 160.663L121.58 160.673Z" fill="#00A587"/>
</svg>

<svg xmlns="http://www.w3.org/2000/svg" width="256" height="256" fill="none"><rect width="256" height="256" fill="#282828" rx="60"/><path fill="#00A587" d="M178.507 128.08c2.254 17.693 4.347 34.305 6.519 50.899.258 1.988-.154 2.69-2.381 2.801-13.407.666-13.399.719-18.245-11.489-2.018-5.08-3.985-10.18-6.134-15.209a4.14 4.14 0 0 1-.495-2.723 4.2 4.2 0 0 1 1.334-2.436c6.342-6.928 12.519-14.044 19.402-21.843m-78.803 14.829c1.92 9.739 3.814 18.894 5.482 28.089.515 2.846 2.831 6.462.85 8.386-1.709 1.654-5.503-.685-8.42-.579-7.747.288-11.353-3.292-12.611-10.811-.739-4.414-1.066-7.47 2.633-10.889a149 149 0 0 0 12.066-14.196"/><path fill="#00A587" d="M121.58 160.673c0-5.47-.085-10.939.041-16.407.049-2.147-.559-2.872-2.878-2.947q-23.73-.773-47.45-1.874c-2.485-.114-3.465.58-3.993 2.996-2.44 11.187-5.21 22.309-7.593 33.51-.669 3.145-1.889 4.305-5.232 3.948a71 71 0 0 0-11.168-.254c-2.806.14-3.346-1.012-3.305-3.416.242-16.799.6-33.599.435-50.393a22.58 22.58 0 0 1 4.975-14.252c8.751-11.966 17.18-24.146 25.659-36.296a4.4 4.4 0 0 1 2.05-1.89 4.5 4.5 0 0 1 2.794-.298q47.418 4.991 94.871 9.67a12.2 12.2 0 0 1 5.5 2.07c18.825 12.036 37.617 24.115 56.537 36.005 2.831 1.772 2.909 2.785.188 4.388a5.5 5.5 0 0 0-1.545 1.221c-5.448 6.926-11.839 6.614-19.561 3.545-9.333-3.7-19.175-6.154-28.744-9.299a6.08 6.08 0 0 0-5.606.575 2057 2057 0 0 1-26.528 15.938 5.55 5.55 0 0 0-1.991 1.77 5.44 5.44 0 0 0-.92 2.48c-1.949 11.547-4.178 23.044-5.969 34.622-.515 3.317-1.717 4.368-5.068 4.138a113 113 0 0 0-12.779-.021c-2.525.112-3.171-.759-3.088-3.127.164-5.467.051-10.942.051-16.412z"/></svg>
